!!!COM: Joplin, Scott
!!!CDT: 1868/11/24/-1917/04/01/
!!!OTL: Peacherine Rag
!!!ODT: 1901///
!!!PPR: John Stark & Son, St. Louis, Missouri
!!!PDT: 1901///
!!!ENC: Craig Stuart Sapp
!!!YEC: Copyright 2001 by Craig Stuart Sapp
!!!YEN: United States of America
**kern	**kern
*Ipiano	*Ipiano
*lh	*rh
*clefF4	*clefG2
*k[b-e-a-]	*k[b-e-a-]
*E-:	*E-:
*M2/4	*M2/4
*MM100	*MM100
*>[A,B,B1,B,B2,C,C1,C,C2,D,E,E1,E,E2,F,F1,F,F2]	*>[A,B,B1,B,B2,C,C1,C,C2,D,E,E1,E,E2,F,F1,F,F2]
*>A	*>A
16E-	16ee-
16F	16ff
16G	16gg
[16F	[16ff
8F]	8ff]
8BB-	8b-
=2	=2
16F	16ff
16G	16gg
16A-	16aa-
[16G	[16gg
8G]	8gg]
8BB-	8b-
=3	=3
16C	16cc
8C	8cc
16BBn	16bn
16C	16cc
16D	16dd
8E-	8ee-
=4	=4
8BB-	8b-
4BB-	[8b-
.	16b-]
.	16g
8r	16a-
.	16an
=5!|:	=5!|:
*>B	*>B
8E-	8b-
8e- B- G	8ee- g
8BB-	8dd g
8e- B- G	8cc g
=6	=6
8E-	16b- g
.	8ee- g
8e- B- G	.
.	[16dd [g
8BB-	16dd] g]
.	16cc
8e- B- G	16b-
.	16g
=7	=7
8E-	8b- g
8e- B- G	8ee- g
8BB-	8dd g
8e- B- G	8cc g
=8	=8
8F	16b- a-
.	8dd a-
8d B- A-	.
.	[16cc [a-
8BB-	16cc] a-]
.	16b-
8d B- A-	16f
.	16g
=9	=9
8F	8a-
8d B- A-	8dd a-
8BB-	8cc a-
8d B- A-	8b- a-
=10	=10
8F	16a-
.	8dd a-
8d B- A-	.
.	[16cc [a-
8BB-	16]cc a-]
.	16b-
8d B- A-	16dd
.	16ff
=11	=11
8F	8aa- dd a-
8d B-	4aa- dd a-
8F#	.
8e- c F#	8aan ee- an
=12	=12
*^	*^
8G	4G	[4bb- [ee- [b-	8r
8e- B-	.	.	16ee-
.	.	.	16ff
*v	*v	*	*
8e- B-	16bb-] ee-] b-]	16gg
.	16g	16r
8r	16a-	8r
.	16an	.
*	*v	*v
=13	=13
8E-	8b-
8e- B- G	8ee- g
8BB-	8dd g
8e- B- G	8cc g
=14	=14
8E-	16b- g
.	8ee- g
8e- B- G	.
.	[16dd [g
8BB-	16dd] g]
.	16cc
8e- B- G	16b-
.	16g
=15	=15
8BBn	8gg g
8f d G	4gg bn g
8GG	.
8f d G	8gg b g
=16	=16
*	*^
8C	4.ee- cc g	8r
8e- c G	.	16ccc
.	.	16ddd
8e- c G	.	8eee-
8r	8cc	8r
*	*v	*v
=17	=17
4A- AA-	8ff ee- cc
.	8ff ee- cc
4An AAn	8ff# ee- cc
.	8ff# ee- cc
=18	=18
8B- BB-	16gg ee- b-
.	8gg ee- b-
8e- B- G	.
.	16bb- b-
8C	8aa- een cc b-
8en c B- G	8gg ee cc b-
=19	=19
8e- c F	16gg an
.	8gg a
8e- c F	.
.	16ee- a
*	*^
8d B-	8a-	16ff
.	.	16ee-
*	*v	*v
8d B-	8ff a-
=20	=20
*>B1	*>B1
8e- E-	[4ee- [g
8e- B- G	.
8e- B- G	16ee-] g]
.	16g
8r	16a-
.	16an
=21:|!	=21:|!
*>B2	*>B2
8e- E-	[4ee- [g
8B- BB-	.
8E- EE-	8ee-] g]
8FF	8r
=22!|:	=22!|:
*k[b-e-]	*k[b-e-]
*B-:	*B-:
*>C	*>C
8C	8r
8e- c F	8ff ee- a
8FF	8gg ee- a
8e- c F	8ff ee- a
=23	=23
8C	8r
8e- A F	8ccc aa ee-
8FF	8ddd aa ee-
8e- A F	8ccc aa ee-
=24	=24
8BB-	8r
8d B- F	8bb- dd
8FF	8aa dd
8d B- F	8gg dd
=25	=25
8BB-	16gg dd
.	16ff
8d B- F	16een
.	[16ff
8FF	16ff]
.	16gg
8d B- F	8ff
=26	=26
8C	8r
8e- c F	8eee- aa ee-
8FF	8eee- aa ee-
8e- A F	8ddd aa ee-
=27	=27
*	*^
8C	4.aa ee-	16ddd
.	.	16ccc
8e- A F	.	16bbn
.	.	[16ccc
8FF	.	16ccc]
.	.	16fff
8e- A F	8r	8ff
*	*v	*v
=28	=28
8BB-	8r
8d B- F	8ddd bb- dd
8FF	8ddd ff dd
8d B- F	8ccc ff dd
=29	=29
*	*^
8BB-	4.ff dd	16ccc
.	.	16bb-
8d B- F	.	16aa
.	.	[16bb-
8FF	.	16bb-]
.	.	16fff
8d B- F	8r	8ff
*	*v	*v
=30	=30
8C	8r
8e- c F	8ff ee- a
8FF	8gg ee- a
8e- c F	8ff ee- a
=31	=31
8C	8r
8e- A F	8ccc aa ee-
8FF	8ddd aa ee-
8e- A F	8ccc aa ee-
=32	=32
8BB-	8r
8d B- F	8bb- dd
8FF	8aa dd
8d B- F	8gg dd
=33	=33
8BB-	16gg dd
.	16ff
8d B- F	16een
.	[16ff
8FF	16ff]
.	16dd
8d B- F	16ee-
.	16ff
=34	=34
8E- EE-	16gg g
.	16ee- b-
8E- EE-	16gg g
.	[16aa [a
8F FF	16aa] a]
.	8gg g
8E- EE-	.
.	16ee- b-
=35	=35
8D DD	16ff f
.	16dd b-
8D DD	16ff f
.	[16gg [g
8E- EE-	16gg] g]
.	8ff f
8D DD	.
.	16b-
=36	=36
8C CC	16dd b- en
.	8dd b- e
8C CC	.
.	16dd b- e
*	*^
8F FF	8a e-	16cc
.	.	16b-
*	*v	*v
8F FF	8cc a e-
=37	=37
*>C1	*>C1
8B- BB-	[4b- [d
8B- F	.
8B- F	8b-] d]
8FF	8r
=38:|!	=38:|!
*>C2	*>C2
8B- BB-	4b- d
8F FF	.
4BB- BBB-	4b- a- d
=39	=39
*>D	*>D
*k[b-e-a-]	*k[b-e-a-]
8E-	8b-
8e- B- G	8ee- g
8BB-	8dd g
8e- B- G	8cc g
=40	=40
8E-	16b- g
.	8ee- g
8e- B- G	.
.	[16dd [g
8BB-	16dd] g]
.	16cc
8e- B- G	16b-
.	16g
=41	=41
8E-	8b- g
8e- B- G	8ee- g
8BB-	8dd g
8e- B- G	8cc g
=42	=42
8F	16b- a-
.	8dd a-
8d B- A-	.
.	[16cc [a-
8BB-	16cc] a-]
.	16b-
8d B- A-	16f
.	16g
=43	=43
8F	8a-
8d B- A-	8dd a-
8BB-	8cc a-
8d B- A-	8b- a-
=44	=44
8F	16a-
.	8dd a-
8d B- A-	.
.	[16cc [a-
8BB-	16cc] a-]
.	16b-
8d B- A-	16dd
.	16ff
=45	=45
8F	8aa- dd a-
8d B-	4aa- dd a-
8F#	.
8e- c F#	8aan ee- an
=46	=46
*	*^
8G	[4bb- [ee- [b-	8r
8e- B-	.	16ee-
.	.	16ff
8e- B-	16bb-] ee-] b-]	16gg
.	16g	16r
8r	16a-	8r
.	16an	.
*	*v	*v
=47	=47
8E-	8b-
8e- B- G	8ee- g
8BB-	8dd g
8e- B- G	8cc g
=48	=48
8E-	16b- g
.	8ee- g
8e- B- G	.
.	[16dd [g
8BB-	16dd] g]
.	16cc
8e- B- G	16b-
.	16g
=49	=49
8BBn	8gg g
8f d G	4gg bn g
8GG	.
8f d G	8ff b g
=50	=50
*	*^
8C	4.ee- cc g	8r
8e- c G	.	16ccc
.	.	16ddd
8e- c G	.	8eee-
8r	8cc	8r
*	*v	*v
=51	=51
4A- AA-	8ff ee- cc
.	8ff ee- cc
4An AAn	8ff# ee- cc
.	8ff# ee- cc
=52	=52
8B- BB-	16gg ee- b-
.	8gg ee- b-
8e- B- G	.
.	16bb- b-
8C	8aa- een b-
8en c G	8gg ee b-
=53	=53
8e- c F	16gg an
.	8gg a
8e- c F	.
.	16ee- a
*	*^
8d B-	8a-	16ff
.	.	16ee-
*	*v	*v
8d B-	8ff a-
=54	=54
8e- E-	4ee- g
8B- BB-	.
8E- EE-	8ee- dd- g
8r	8r
=55!|:	=55!|:
*>E	*>E
*k[b-e-a-d-]	*k[b-e-a-d-]
*A-:	*A-:
8A- AA-	16ee- e-
.	16cc
8c A- E-	16ee- e-
.	16a-
8A- AA-	16cc
.	8ee- e-
8c A- E-	.
.	16a-
=56	=56
8An AAn	16cc e-
.	16an
8A AA	16cc e-
.	[16dd- [a [e-
8F FF	16dd-] a] e-]
.	8cc a e-
8F FF	.
.	16a
=57	=57
8Dn DDn	8cc a- f dn
8D DD	16b- a- f d
.	[16cc [a- [f [d
8BB- BBB-	16cc] a-] f] d]
.	16b-
8BB- BBB-	16a-
.	16f
=58	=58
8F FF	8cc a- dn
8F FF	16b- a- d
.	[16cc [a- [d
8BB- BBB-	16cc] a-] d]
.	16b-
8BB- BBB-	16a-
.	16f
=59	=59
*	*^
8E- EE-	8.e-	4dd-
8d- G E-	.	.
.	32f	.
.	32g	.
*	*v	*v
8G GG	16b-
.	8dd- f
8d- B- E-	.
.	16g
=60	=60
*	*^
8B- BB-	8.e-	4dd-
8d- B- G	.	.
.	32f	.
.	32g	.
*	*v	*v
8E- EE-	16b-
.	8dd- f
8d- B- G	.
.	16f
=61	=61
8A- AA-	8cc e-
8c A- E-	16cc en
.	[16cc [f
8E- EE-	16cc] f]
.	8cc a-
8c A- E-	.
.	16cc f
=62	=62
8A- AA-	8cc e-
8c A- E-	16cc en
.	[16cc [f
8E- EE-	8.cc] f]
8c A- E-	.
.	32a-
.	32cc
=63	=63
8A- AA-	16ee- e-
.	16cc
8c A- E-	16ee- e-
.	16a-
8E- EE-	16cc
.	8ee- e-
8c A- E-	.
.	16a-
=64	=64
8An AAn	16cc e-
.	16an
8A AA	16cc e-
.	[16dd- [a [e-
8F FF	16dd-] a] e-]
.	8cc a e-
8F FF	.
.	16a
=65	=65
8Dn DDn	8cc a- f dn
8D DD	16b- a- f d
.	[16cc [a- [f [d
8BB- BBB-	16cc] a-] f] d]
.	16b-
8BB- BBB-	16a-
.	16f
=66	=66
8F FF	8cc a- dn
8F FF	16b- a- d
.	[16cc [a- [d
8BB- BBB-	16cc] a-] d]
.	16b-
8BB- BBB-	16a-
.	16f
=67	=67
*	*^
8E- EE-	8.e-	4dd-
8d- G E-	.	.
.	32f	.
.	32g	.
*	*v	*v
8G GG	16b-
.	8dd- f
8d- B- E-	.
.	16g
=68	=68
8B- BB-	16e-
.	16g
8d- G E-	16f
.	16g
8E- EE-	16dd-
.	8g d-
8B- G E-	.
.	[16a- [c
=69	=69
*>E1	*>E1
8A- AA-	2a-_ c_
16E- EE-	.
[16F [FF	.
16F] FF]	.
16E- EE-	.
16F FF	.
16G GG	.
=70	=70
8A- AA-	8a-] c]
.	ffq
8r	8ee-
.	fq
4r	8e-
.	16a-
.	16cc
=71:|!	=71:|!
*>E2	*>E2
8A- AA-	2a-_ c_
8E- EE-	.
16F FF	.
8E- EE-	.
16C CC	.
=72	=72
8AA- AAA-	8a-] c]
8r	8r
8AA- AAA-	8aa- cc a-
8r	8e-
=73!|:	=73!|:
*>F	*>F
8B- BB-	16g
.	8b-
8d- G E-	.
.	16cc
8E- EE-	8dd-
8d- G E-	16gg
.	16ff
=74	=74
8G GG	8ee- dd-
8d- B- E-	4ee- dd-
8E- EE-	.
8d- G E-	8e-
=75	=75
8A- AA-	16a-
.	8cc
8c A- E-	.
.	16dd-
8E- EE-	8ee-
8c A- E-	16aa-
.	16ff
=76	=76
8AA-	8ee- cc
8c A- E-	4ee- cc
8CC	.
8c A- E-	8ee- cc
=77	=77
8DD-	16ff dd-
.	8ff dd-
8d- A- F	.
.	[16ff [dd-
8DD-	16ff] dd-]
.	16aa-
8d- A- E	16bb-
.	16aa-
=78	=78
8AA-	8ccc cc
8c A- E-	[8ccc [cc
8AAn	16ccc] cc]
.	16eee- ee-
8e- c An F#	16dddn ddn
.	16ccc cc
=79	=79
8BB-	16bb- b-
.	16gg
8e- B- G	16ccc
.	16bb-
8BB-	16aa-
.	8ddn
8dn B- A- F	.
.	16bb-
=80	=80
8e- B- G E-	8ee-
16G GG	8r
16B- BB-	.
8E- EE-	8eee- gg ee-
8r	8e-
=81	=81
8B- BB-	16g
.	8b-
8d- G E-	.
.	16cc
8E- EE-	8dd-
8d- B- E-	16gg
.	16ff
=82	=82
8G GG	8ee- dd-
8d- B- E-	4ee- dd-
8E- EE-	.
8d- G E-	8e-
=83	=83
8A- AA-	16a-
.	8cc
8c A- E-	.
.	16dd-
8E- EE-	8ee-
8c A- E-	16aa-
.	16ff
=84	=84
8AA-	8ee- cc
8c A- E-	4ee- cc
8CC	.
8c A- E-	8ee- cc
=85	=85
8DD-	16ff dd-
.	8ff dd-
8d- A- F	.
.	[16ff [bn
*	*^
8DDn	4b]	16ff]
.	.	16aa-
8Bn A- F	.	16gg
.	.	16ff
*	*v	*v
=86	=86
8EE-	8ee- cc
8c A- E-	[8ee- [cc
8E- EE-	16ee-] cc]
.	16ee-
8En EEn	16cc
.	16b-
=87	=87
8F FF	8a- dn
8F FF	8a- d
8E- EE-	16b- g d-
.	8b- g d-
8G GG	.
.	16e-
=88	=88
*>F1	*>F1
8A- AA-	8a- c
8r	16ee-
.	16ee-
4r	8ee-
.	8e-
=89:|!	=89:|!
*>F2	*>F2
8A- AA-	4a- c
8E- EE-	.
8AA- AAA-	8aa- cc a-
8r	8r
==;	==;
*-	*-
